Papirus/24x24/apps/polari.svg

<!-- Created with Inkscape (http://www.inkscape.org/) -->
<svg width="24" height="24" version="1.1" viewBox="0 0 24 24" xmlns="http://www.w3.org/2000/svg">
 <g>
  <path d="m11 8.5c-1.1079989 0-2 0.8920011-2 2v7c0 1.107999 0.8920011 2 2 2h6l3 3v-3c1.107999 0 2-0.892001 2-2v-7c0-1.1079989-0.892001-2-2-2z" style="opacity:.19"/>
  <path d="m11 8c-1.1079989 0-2 0.8920011-2 2v7c0 1.107999 0.8920011 2 2 2h6l3 3v-3c1.107999 0 2-0.892001 2-2v-7c0-1.1079989-0.892001-2-2-2z" style="fill:#f4f4f4"/>
  <path d="m11 8c-1.1079978 0-2 0.8920022-2 2v0.5c0-1.1079978 0.8920022-2 2-2h9c1.107998 0 2 0.8920022 2 2v-0.5c0-1.1079978-0.892002-2-2-2z" style="fill:#ffffff;opacity:.2"/>
  <path d="m4 2.5c-1.1079989 0-2 0.8920011-2 2v7c0 1.107999 0.8920011 2 2 2v3l3-3h6c1.107999 0 2-0.892001 2-2v-7c0-1.1079989-0.892001-2-2-2z" style="opacity:.2"/>
  <path d="m4 2c-1.1079989 0-2 0.8920011-2 2v7c0 1.107999 0.8920011 2 2 2v3l3-3h6c1.107999 0 2-0.892001 2-2v-7c0-1.1079989-0.892001-2-2-2z" style="fill:#33d17a"/>
  <path d="m7 4.5v2h-2v1h2v1h-2v1h2v2h1v-2h1v2h1v-2h2v-1h-2v-1h2v-1h-2v-2h-1v2h-1v-2zm1 3h1v1h-1z" style="opacity:.2"/>
  <path d="m7 4v2h-2v1h2v1h-2v1h2v2h1v-2h1v2h1v-2h2v-1h-2v-1h2v-1h-2v-2h-1v2h-1v-2zm1 3h1v1h-1z" style="fill:#ffffff"/>
  <path d="m4 2c-1.1079978 0-2 0.8920022-2 2v0.5c0-1.1079978 0.8920022-2 2-2h9c1.107998 0 2 0.8920022 2 2v-0.5c0-1.1079978-0.892002-2-2-2z" style="fill:#ffffff;opacity:.2"/>
 </g>
</svg>

<svg xmlns="http://www.w3.org/2000/svg" width="24" height="24" version="1.1">
 <path style="opacity:0.2" d="M 11,8.5 C 9.892,8.5 9,9.392 9,10.5 V 17.5 C 9,18.608 9.892,19.5 11,19.5 H 17 L 20,22.5 V 19.5 C 21.108,19.5 22,18.608 22,17.5 V 10.5 C 22,9.392 21.108,8.5 20,8.5 Z"/>
 <path style="fill:#dfdfdf" d="M 11,8 C 9.892,8 9,8.892 9,10 V 17 C 9,18.108 9.892,19 11,19 H 17 L 20,22 V 19 C 21.108,19 22,18.108 22,17 V 10 C 22,8.892 21.108,8 20,8 Z"/>
 <path style="opacity:0.2;fill:#ffffff" d="M 11,8 C 9.892,8 9,8.892 9,10 V 10.5 C 9,9.392 9.892,8.5 11,8.5 H 20 C 21.108,8.5 22,9.392 22,10.5 V 10 C 22,8.892 21.108,8 20,8 Z"/>
 <path style="opacity:0.2" d="M 4,2.5 C 2.892,2.5 2,3.392 2,4.5 V 11.5 C 2,12.608 2.892,13.5 4,13.5 V 16.5 L 7,13.5 H 13 C 14.108,13.5 15,12.608 15,11.5 V 4.5 C 15,3.392 14.108,2.5 13,2.5 Z"/>
 <path style="fill:#33d17a" d="M 4,2 C 2.892,2 2,2.892 2,4 V 11 C 2,12.108 2.892,13 4,13 V 16 L 7,13 H 13 C 14.108,13 15,12.108 15,11 V 4 C 15,2.892 14.108,2 13,2 Z"/>
 <path style="opacity:0.2" d="M 7,4.5 V 6.5 H 5 V 7.5 H 7 V 8.5 H 5 V 9.5 H 7 V 11.5 H 8 V 9.5 H 9 V 11.5 H 10 V 9.5 H 12 V 8.5 H 10 V 7.5 H 12 V 6.5 H 10 V 4.5 H 9 V 6.5 H 8 V 4.5 Z M 8,7.5 H 9 V 8.5 H 8 Z"/>
 <path style="fill:#ffffff" d="M 7,4 V 6 H 5 V 7 H 7 V 8 H 5 V 9 H 7 V 11 H 8 V 9 H 9 V 11 H 10 V 9 H 12 V 8 H 10 V 7 H 12 V 6 H 10 V 4 H 9 V 6 H 8 V 4 Z M 8,7 H 9 V 8 H 8 Z"/>
 <path style="opacity:0.2;fill:#ffffff" d="M 4,2 C 2.892,2 2,2.892 2,4 V 4.5 C 2,3.392 2.892,2.5 4,2.5 H 13 C 14.108,2.5 15,3.392 15,4.5 V 4 C 15,2.892 14.108,2 13,2 Z"/>
</svg>
